frontend/src/assets/icons/camera-01.svg

<svg width="24" height="24" viewBox="0 0 24 24" fill="none" xmlns="http://www.w3.org/2000/svg">
<g id="camera-01">
<g id="Icon">
<path d="M2 8.37722C2 8.0269 2 7.85174 2.01462 7.70421C2.1556 6.28127 3.28127 5.1556 4.70421 5.01462C4.85174 5 5.03636 5 5.40558 5C5.54785 5 5.61899 5 5.67939 4.99634C6.45061 4.94963 7.12595 4.46288 7.41414 3.746C7.43671 3.68986 7.45781 3.62657 7.5 3.5C7.54219 3.37343 7.56329 3.31014 7.58586 3.254C7.87405 2.53712 8.54939 2.05037 9.32061 2.00366C9.38101 2 9.44772 2 9.58114 2H14.4189C14.5523 2 14.619 2 14.6794 2.00366C15.4506 2.05037 16.126 2.53712 16.4141 3.254C16.4367 3.31014 16.4578 3.37343 16.5 3.5C16.5422 3.62657 16.5633 3.68986 16.5859 3.746C16.874 4.46288 17.5494 4.94963 18.3206 4.99634C18.381 5 18.4521 5 18.5944 5C18.9636 5 19.1483 5 19.2958 5.01462C20.7187 5.1556 21.8444 6.28127 21.9854 7.70421C22 7.85174 22 8.0269 22 8.37722V16.2C22 17.8802 22 18.7202 21.673 19.362C21.3854 19.9265 20.9265 20.3854 20.362 20.673C19.7202 21 18.8802 21 17.2 21H6.8C5.11984 21 4.27976 21 3.63803 20.673C3.07354 20.3854 2.6146 19.9265 2.32698 19.362C2 18.7202 2 17.8802 2 16.2V8.37722Z" stroke="black" stroke-width="2" stroke-linecap="round" stroke-linejoin="round"/>
<path d="M12 16.5C14.2091 16.5 16 14.7091 16 12.5C16 10.2909 14.2091 8.5 12 8.5C9.79086 8.5 8 10.2909 8 12.5C8 14.7091 9.79086 16.5 12 16.5Z" stroke="black" stroke-width="2" stroke-linecap="round" stroke-linejoin="round"/>
</g>
</g>
</svg>

<svg xmlns="http://www.w3.org/2000/svg" width="24" height="24" fill="none" viewBox="0 0 24 24">
  <path stroke="#000" stroke-linecap="round" stroke-linejoin="round" stroke-width="2" d="M2 8.377c0-.35 0-.525.015-.673a3 3 0 0 1 2.69-2.69C4.851 5 5.035 5 5.404 5c.143 0 .214 0 .274-.004a2 2 0 0 0 1.735-1.25c.023-.056.044-.12.086-.246.042-.127.063-.19.086-.246a2 2 0 0 1 1.735-1.25C9.38 2 9.448 2 9.58 2h4.838c.133 0 .2 0 .26.004a2 2 0 0 1 1.735 1.25c.023.056.044.12.086.246.042.127.063.19.086.246a2 2 0 0 0 1.735 1.25c.06.004.131.004.273.004.37 0 .554 0 .702.015a3 3 0 0 1 2.69 2.69c.014.147.014.322.014.672V16.2c0 1.68 0 2.52-.327 3.162a3 3 0 0 1-1.311 1.311C19.72 21 18.88 21 17.2 21H6.8c-1.68 0-2.52 0-3.162-.327a3 3 0 0 1-1.311-1.311C2 18.72 2 17.88 2 16.2V8.377Z"/>
  <path stroke="#000" stroke-linecap="round" stroke-linejoin="round" stroke-width="2" d="M12 16.5a4 4 0 1 0 0-8 4 4 0 0 0 0 8Z"/>
</svg>
